resources/images/param_lockedzag.svg

<?xml version="1.0" encoding="UTF-8" standalone="no"?>
<svg
   width="24"
   height="24"
   viewBox="0 0 24 24"
   version="1.1"
   id="svg3"
   sodipodi:docname="param_lockedzag.svg"
   xml:space="preserve"
   inkscape:version="1.4.2 (ebf0e94, 2025-05-08)"
   xmlns:inkscape="http://www.inkscape.org/namespaces/inkscape"
   xmlns:sodipodi="http://sodipodi.sourceforge.net/DTD/sodipodi-0.dtd"
   xmlns="http://www.w3.org/2000/svg"
   xmlns:svg="http://www.w3.org/2000/svg"><defs
     id="defs3"><clipPath
       id="clip0_8991_35043"><rect
         width="10"
         height="10"
         fill="white"
         id="rect5" /></clipPath><clipPath
       id="clip0_8991_35043-9"><rect
         width="10"
         height="10"
         fill="#ffffff"
         id="rect5-5"
         x="0"
         y="0" /></clipPath><clipPath
       id="clip0_8991_35043-1"><rect
         width="10"
         height="10"
         fill="#ffffff"
         id="rect5-0"
         x="0"
         y="0" /></clipPath><clipPath
       id="clip0_252_3415"><rect
         width="10"
         height="10"
         fill="white"
         id="rect20" /></clipPath></defs><sodipodi:namedview
     id="namedview3"
     pagecolor="#ffffff"
     bordercolor="#000000"
     borderopacity="0.25"
     inkscape:showpageshadow="2"
     inkscape:pageopacity="0.0"
     inkscape:pagecheckerboard="0"
     inkscape:deskcolor="#323232"
     inkscape:zoom="34.618769"
     inkscape:cx="10.788945"
     inkscape:cy="11.308894"
     inkscape:window-width="2560"
     inkscape:window-height="1377"
     inkscape:window-x="-8"
     inkscape:window-y="-8"
     inkscape:window-maximized="1"
     inkscape:current-layer="svg3" /><path
     d="M 1.5004197,15.581383 15.500418,1.5813815 M 8.5004192,22.581384 9.4748874,21.606912 10.036589,21.045211 22.500419,8.5813815 m -20.9999991,0 6.9999993,-7 m 6.9999988,21.0000025 7,-7 M 21.914418,2.1673815 2.0864196,21.995381"
     style="display:inline;fill:none;stroke:#808080;stroke-linecap:round;stroke-linejoin:round;stroke-opacity:0.5"
     id="path1-7"
     sodipodi:nodetypes="cccccccccccc" /><path
     d="M 6.1489271,4.7722047 H 17.851072 a 1.3767229,1.3767229 0 0 1 1.376724,1.3767229 V 17.851073 a 1.3767229,1.3767229 0 0 1 -1.376724,1.376722 H 6.1489271 A 1.3767229,1.3767229 0 0 1 4.7722043,17.851073 V 6.1489276 A 1.3767229,1.3767229 0 0 1 6.1489271,4.7722047 Z"
     style="display:inline;fill:none;fill-opacity:1;stroke:#8c8c8c;stroke-width:1.044;stroke-linecap:butt;stroke-linejoin:round;stroke-miterlimit:10;stroke-dasharray:none;stroke-opacity:1;paint-order:fill markers stroke"
     id="path3-5"
     inkscape:label="internal border" /><path
     id="path1-1"
     style="display:inline;fill:none;stroke:#008a79;stroke-linecap:butt;stroke-linejoin:round;stroke-opacity:1"
     d="M 5.2397203,18.841426 2.085444,21.995703" /><path
     id="path12"
     style="display:inline;fill:none;stroke:#008a79;stroke-linecap:butt;stroke-linejoin:bevel;stroke-opacity:1"
     d="M 21.913442,2.1677021 18.759166,5.3219792" /><path
     id="path11"
     style="display:inline;fill:none;stroke:#008a79;stroke-linecap:round;stroke-linejoin:round;stroke-opacity:1"
     d="m 15.499444,22.581703 6.999998,-7" /><path
     id="path10"
     style="display:inline;fill:none;stroke:#008a79;stroke-linecap:round;stroke-linejoin:round;stroke-opacity:1"
     d="M 1.499444,8.5817026 8.4994443,1.5817021" /><path
     id="path9"
     style="display:inline;fill:none;stroke:#008a79;stroke-linecap:round;stroke-linejoin:round;stroke-opacity:1"
     d="M 19.157654,11.92349 22.499441,8.5817026" /><path
     id="path7"
     style="display:inline;fill:none;stroke:#008a79;stroke-linecap:round;stroke-linejoin:round;stroke-opacity:1"
     d="m 8.4994443,22.581703 0.974468,-0.974468 0.5617017,-0.561702 1.804682,-1.804682" /><path
     id="path6"
     style="display:inline;fill:none;stroke:#008a79;stroke-linecap:round;stroke-linejoin:round;stroke-opacity:1"
     d="M 12.1596,4.9215459 15.499444,1.581702" /><path
     id="path4"
     style="display:inline;fill:none;stroke:#008a79;stroke-linecap:round;stroke-linejoin:round;stroke-opacity:1"
     d="M 1.4994439,15.581703 4.8392878,12.241859" /><path
     d="m 15.499443,22.581702 -14,-13.9999989 m 21,6.9999999 L 21.524975,14.607235 20.963273,14.045533 8.499443,1.5817029 m 0,20.9999991 -7,-6.999999 m 21,-6.9999999 -7,-7 m -13.414,0.586 19.828,19.8279989"
     style="display:inline;opacity:1;fill:none;stroke:#009688;stroke-linecap:round;stroke-linejoin:round;stroke-opacity:1"
     id="path1"
     sodipodi:nodetypes="cccccccccccc" /><path
     d="m 3.499443,1.581703 h 17 a 2,2 0 0 1 2,2 v 16.999999 a 2,2 0 0 1 -2,2 h -17 a 2,2 0 0 1 -2,-2 V 3.581703 a 2,2 0 0 1 2,-2 z"
     style="display:inline;fill:none;stroke:#999999;stroke-linecap:round;stroke-linejoin:round;stroke-opacity:1"
     id="path3"
     inkscape:label="border" /><g
     style="fill:none"
     id="g3"
     transform="matrix(2.4361593,0,0,2.5272675,-0.17137229,-0.38389611)" /></svg>

<svg width="24" height="24" viewBox="0 0 24 24" fill="none" xmlns="http://www.w3.org/2000/svg">
<path d="M1.5 15.582L15.5 1.58203M8.5 22.582L9.47447 21.6076L10.0362 21.0459L22.5 8.58203M1.5 8.58203L8.5 1.58203M15.5 22.582L22.5 15.582M21.914 2.16803L2.086 21.996" stroke="#808080" stroke-opacity="0.5" stroke-linecap="round" stroke-linejoin="round"/>
<path d="M6.14821 4.77344H17.8504C18.0311 4.77344 18.2102 4.80905 18.3772 4.87823C18.5442 4.94742 18.696 5.04883 18.8238 5.17667C18.9517 5.30451 19.0531 5.45628 19.1223 5.62331C19.1915 5.79034 19.2271 5.96937 19.2271 6.15016V17.8523C19.2271 18.0331 19.1915 18.2121 19.1223 18.3792C19.0531 18.5462 18.9517 18.698 18.8238 18.8258C18.696 18.9536 18.5442 19.055 18.3772 19.1242C18.2102 19.1934 18.0311 19.229 17.8504 19.229H6.14821C5.78308 19.229 5.4329 19.084 5.17472 18.8258C4.91653 18.5676 4.77148 18.2174 4.77148 17.8523V6.15016C4.77148 5.78503 4.91653 5.43486 5.17472 5.17667C5.4329 4.91848 5.78308 4.77344 6.14821 4.77344Z" stroke="#8C8C8C" stroke-width="1.044" stroke-miterlimit="10" stroke-linejoin="round"/>
<path d="M5.24021 18.8398L2.08594 21.9941" stroke="#FF7C3F" stroke-linejoin="round"/>
<path d="M21.914 2.16797L18.7598 5.32225" stroke="#FF7C3F" stroke-linejoin="bevel"/>
<path d="M15.5 22.582L22.5 15.582" stroke="#FF7C3F" stroke-linecap="round" stroke-linejoin="round"/>
<path d="M1.5 8.58203L8.5 1.58203" stroke="#FF7C3F" stroke-linecap="round" stroke-linejoin="round"/>
<path d="M19.1582 11.9238L22.5 8.58203" stroke="#FF7C3F" stroke-linecap="round" stroke-linejoin="round"/>
<path d="M8.5 22.583L9.47447 21.6086L10.0362 21.0469L11.8409 19.2422" stroke="#FF7C3F" stroke-linecap="round" stroke-linejoin="round"/>
<path d="M12.1602 4.92188L15.5 1.58203" stroke="#FF7C3F" stroke-linecap="round" stroke-linejoin="round"/>
<path d="M1.5 15.582L4.83984 12.2422" stroke="#FF7C3F" stroke-linecap="round" stroke-linejoin="round"/>
<path d="M15.5 22.582L1.5 8.58203M22.5 15.582L21.5255 14.6076L20.9638 14.0459L8.5 1.58203M8.5 22.582L1.5 15.582M22.5 8.58203L15.5 1.58203M2.086 2.16803L21.914 21.996" stroke="#FF7C3F" stroke-linecap="round" stroke-linejoin="round"/>
<path d="M3.5 1.58203H20.5C21.0304 1.58203 21.5391 1.79275 21.9142 2.16782C22.2893 2.54289 22.5 3.0516 22.5 3.58203V20.582C22.5 21.1125 22.2893 21.6212 21.9142 21.9962C21.5391 22.3713 21.0304 22.582 20.5 22.582H3.5C2.96957 22.582 2.46086 22.3713 2.08579 21.9962C1.71071 21.6212 1.5 21.1125 1.5 20.582V3.58203C1.5 3.0516 1.71071 2.54289 2.08579 2.16782C2.46086 1.79275 2.96957 1.58203 3.5 1.58203Z" stroke="#999999" stroke-linecap="round" stroke-linejoin="round"/>
</svg>
